img/google-play-badge.svg

<svg enable-background="new 0 0 135 40" viewBox="0 0 135 40" xmlns="http://www.w3.org/2000/svg" xmlns:xlink="http://www.w3.org/1999/xlink"><linearGradient id="a" gradientTransform="matrix(1 0 0 -1 0 182.0002)" gradientUnits="userSpaceOnUse" x1="21.7996" x2="5.0172" y1="173.2904" y2="156.508"><stop offset="0" stop-color="#00a0ff"/><stop offset=".00657445" stop-color="#00a1ff"/><stop offset=".2601" stop-color="#00beff"/><stop offset=".5122" stop-color="#00d2ff"/><stop offset=".7604" stop-color="#00dfff"/><stop offset="1" stop-color="#00e3ff"/></linearGradient><linearGradient id="b" gradientTransform="matrix(1 0 0 -1 0 182.0002)" gradientUnits="userSpaceOnUse" x1="33.8343" x2="9.6374" y1="161.9987" y2="161.9987"><stop offset="0" stop-color="#ffe000"/><stop offset=".4087" stop-color="#ffbd00"/><stop offset=".7754" stop-color="#ffa500"/><stop offset="1" stop-color="#ff9c00"/></linearGradient><linearGradient id="c" gradientTransform="matrix(1 0 0 -1 0 182.0002)" gradientUnits="userSpaceOnUse" x1="24.8269" x2="2.0686" y1="159.704" y2="136.9457"><stop offset="0" stop-color="#ff3a44"/><stop offset="1" stop-color="#c31162"/></linearGradient><linearGradient id="d" gradientTransform="matrix(1 0 0 -1 0 182.0002)" gradientUnits="userSpaceOnUse" x1="7.2972" x2="17.4598" y1="181.8239" y2="171.6614"><stop offset="0" stop-color="#32a071"/><stop offset=".0685" stop-color="#2da771"/><stop offset=".4762" stop-color="#15cf74"/><stop offset=".8009" stop-color="#06e775"/><stop offset="1" stop-color="#00f076"/></linearGradient><path d="m-10-10h155v60h-155z" fill="none"/><path d="m130 40h-125c-2.8 0-5-2.2-5-5v-30c0-2.8 2.2-5 5-5h125c2.8 0 5 2.2 5 5v30c0 2.8-2.2 5-5 5z"/><path d="m130 .8c2.3 0 4.2 1.9 4.2 4.2v30c0 2.3-1.9 4.2-4.2 4.2h-125c-2.3 0-4.2-1.9-4.2-4.2v-30c0-2.3 1.9-4.2 4.2-4.2zm0-.8h-125c-2.8 0-5 2.3-5 5v30c0 2.8 2.2 5 5 5h125c2.8 0 5-2.2 5-5v-30c0-2.7-2.2-5-5-5z" fill="#a6a6a6"/><g fill="#fff"><g stroke="#fff" stroke-miterlimit="10" stroke-width=".2"><path d="m47.4 10.2c0 .8-.2 1.5-.7 2-.6.6-1.3.9-2.2.9s-1.6-.3-2.2-.9-.9-1.3-.9-2.2.3-1.6.9-2.2 1.3-.9 2.2-.9c.4 0 .8.1 1.2.3s.7.4.9.7l-.5.5c-.4-.5-.9-.7-1.6-.7-.6 0-1.2.2-1.6.7-.5.4-.7 1-.7 1.7s.2 1.3.7 1.7 1 .7 1.6.7c.7 0 1.2-.2 1.7-.7.3-.3.5-.7.5-1.2h-2.2v-.8h2.9z"/><path d="m52 7.7h-2.7v1.9h2.5v.7h-2.5v1.9h2.7v.8h-3.5v-6h3.5z"/><path d="m55.3 13h-.8v-5.3h-1.7v-.7h4.2v.7h-1.7z"/><path d="m59.9 13v-6h.8v6z"/><path d="m64.1 13h-.8v-5.3h-1.7v-.7h4.1v.7h-1.7v5.3z"/><path d="m73.6 12.2c-.6.6-1.3.9-2.2.9s-1.6-.3-2.2-.9-.9-1.3-.9-2.2.3-1.6.9-2.2 1.3-.9 2.2-.9 1.6.3 2.2.9.9 1.3.9 2.2-.3 1.6-.9 2.2zm-3.8-.5c.4.4 1 .7 1.6.7s1.2-.2 1.6-.7c.4-.4.7-1 .7-1.7s-.2-1.3-.7-1.7c-.4-.4-1-.7-1.6-.7s-1.2.2-1.6.7c-.4.4-.7 1-.7 1.7s.2 1.3.7 1.7z"/><path d="m75.6 13v-6h.9l2.9 4.7v-1.2-3.5h.8v6h-.8l-3.1-4.9v1.2 3.7z"/></g><path d="m68.1 21.8c-2.4 0-4.3 1.8-4.3 4.3 0 2.4 1.9 4.3 4.3 4.3s4.3-1.8 4.3-4.3c0-2.6-1.9-4.3-4.3-4.3zm0 6.8c-1.3 0-2.4-1.1-2.4-2.6s1.1-2.6 2.4-2.6 2.4 1 2.4 2.6c0 1.5-1.1 2.6-2.4 2.6zm-9.3-6.8c-2.4 0-4.3 1.8-4.3 4.3 0 2.4 1.9 4.3 4.3 4.3s4.3-1.8 4.3-4.3c0-2.6-1.9-4.3-4.3-4.3zm0 6.8c-1.3 0-2.4-1.1-2.4-2.6s1.1-2.6 2.4-2.6 2.4 1 2.4 2.6c0 1.5-1.1 2.6-2.4 2.6zm-11.1-5.5v1.8h4.3c-.1 1-.5 1.8-1 2.3-.6.6-1.6 1.3-3.3 1.3-2.7 0-4.7-2.1-4.7-4.8s2.1-4.8 4.7-4.8c1.4 0 2.5.6 3.3 1.3l1.3-1.3c-1.1-1-2.5-1.8-4.5-1.8-3.6 0-6.7 3-6.7 6.6s3.1 6.6 6.7 6.6c2 0 3.4-.6 4.6-1.9 1.2-1.2 1.6-2.9 1.6-4.2 0-.4 0-.8-.1-1.1zm45.4 1.4c-.4-1-1.4-2.7-3.6-2.7s-4 1.7-4 4.3c0 2.4 1.8 4.3 4.2 4.3 1.9 0 3.1-1.2 3.5-1.9l-1.4-1c-.5.7-1.1 1.2-2.1 1.2s-1.6-.4-2.1-1.3l5.7-2.4zm-5.8 1.4c0-1.6 1.3-2.5 2.2-2.5.7 0 1.4.4 1.6.9zm-4.7 4.1h1.9v-12.5h-1.9zm-3-7.3c-.5-.5-1.3-1-2.3-1-2.1 0-4.1 1.9-4.1 4.3s1.9 4.2 4.1 4.2c1 0 1.8-.5 2.2-1h.1v.6c0 1.6-.9 2.5-2.3 2.5-1.1 0-1.9-.8-2.1-1.5l-1.6.7c.5 1.1 1.7 2.5 3.8 2.5 2.2 0 4-1.3 4-4.4v-7.6h-1.8zm-2.2 5.9c-1.3 0-2.4-1.1-2.4-2.6s1.1-2.6 2.4-2.6 2.3 1.1 2.3 2.6-1 2.6-2.3 2.6zm24.4-11.1h-4.5v12.5h1.9v-4.7h2.6c2.1 0 4.1-1.5 4.1-3.9s-2-3.9-4.1-3.9zm.1 6h-2.7v-4.3h2.7c1.4 0 2.2 1.2 2.2 2.1-.1 1.1-.9 2.2-2.2 2.2zm11.5-1.8c-1.4 0-2.8.6-3.3 1.9l1.7.7c.4-.7 1-.9 1.7-.9 1 0 1.9.6 2 1.6v.1c-.3-.2-1.1-.5-1.9-.5-1.8 0-3.6 1-3.6 2.8 0 1.7 1.5 2.8 3.1 2.8 1.3 0 1.9-.6 2.4-1.2h.1v1h1.8v-4.8c-.2-2.2-1.9-3.5-4-3.5zm-.2 6.9c-.6 0-1.5-.3-1.5-1.1 0-1 1.1-1.3 2-1.3.8 0 1.2.2 1.7.4-.2 1.2-1.2 2-2.2 2zm10.5-6.6-2.1 5.4h-.1l-2.2-5.4h-2l3.3 7.6-1.9 4.2h1.9l5.1-11.8zm-16.8 8h1.9v-12.5h-1.9z"/></g><path d="m10.4 7.5c-.3.3-.4.8-.4 1.4v22.1c0 .6.2 1.1.5 1.4l.1.1 12.4-12.4v-.1-.1z" fill="url(#a)"/><path d="m27 24.3-4.1-4.1v-.2-.1l4.1-4.1.1.1 4.9 2.8c1.4.8 1.4 2.1 0 2.9z" fill="url(#b)"/><path d="m27.1 24.2-4.2-4.2-12.5 12.5c.5.5 1.2.5 2.1.1z" fill="url(#c)"/><path d="m27.1 15.8-14.6-8.3c-.9-.5-1.6-.4-2.1.1l12.5 12.4z" fill="url(#d)"/><path d="m27 24.1-14.5 8.2c-.8.5-1.5.4-2 0l-.1.1.1.1c.5.4 1.2.5 2 0z" opacity=".2"/><path d="m10.4 32.3c-.3-.3-.4-.8-.4-1.4v.1c0 .6.2 1.1.5 1.4v-.1z" opacity=".12"/><path d="m32 21.3-5 2.8.1.1 4.9-2.8c.7-.4 1-.9 1-1.4 0 .5-.4.9-1 1.3z" opacity=".12"/><path d="m12.5 7.6 19.5 11.1c.6.4 1 .8 1 1.3 0-.5-.3-1-1-1.4l-19.5-11.1c-1.4-.8-2.5-.2-2.5 1.4v.1c0-1.5 1.1-2.2 2.5-1.4z" fill="#fff" opacity=".25"/></svg>

<?xml version="1.0" encoding="utf-8"?>
<!-- Generator: Adobe Illustrator 20.0.0, SVG Export Plug-In . SVG Version: 6.00 Build 0)  -->
<svg version="1.1" id="artwork" xmlns="http://www.w3.org/2000/svg" xmlns:xlink="http://www.w3.org/1999/xlink" x="0px" y="0px"
	 viewBox="0 0 135 40" style="enable-background:new 0 0 135 40;" xml:space="preserve">
<style type="text/css">
	.st0{fill:#FFFFFF;fill-opacity:0;}
	.st1{fill:#A6A6A6;}
	.st2{fill:#FFFFFF;stroke:#FFFFFF;stroke-width:0.2;stroke-miterlimit:10;}
	.st3{fill:#FFFFFF;}
	.st4{fill:url(#SVGID_1_);}
	.st5{fill:url(#SVGID_2_);}
	.st6{fill:url(#SVGID_3_);}
	.st7{fill:url(#SVGID_4_);}
	.st8{opacity:0.2;enable-background:new    ;}
	.st9{opacity:0.12;enable-background:new    ;}
	.st10{opacity:0.25;fill:#FFFFFF;enable-background:new    ;}
</style>
<g>
	<rect x="-10" y="-10" class="st0" width="155" height="60"/>
	<g>
		<path d="M130,40H5c-2.8,0-5-2.2-5-5V5c0-2.8,2.2-5,5-5h125c2.8,0,5,2.2,5,5v30C135,37.8,132.8,40,130,40z"/>
	</g>
	<g>
		<g>
			<path class="st1" d="M130,0.8c2.3,0,4.2,1.9,4.2,4.2v30c0,2.3-1.9,4.2-4.2,4.2H5c-2.3,0-4.2-1.9-4.2-4.2V5c0-2.3,1.9-4.2,4.2-4.2
				H130 M130,0H5C2.2,0,0,2.3,0,5v30c0,2.8,2.2,5,5,5h125c2.8,0,5-2.2,5-5V5C135,2.3,132.8,0,130,0L130,0z"/>
		</g>
	</g>
	<g>
		<path class="st2" d="M47.4,10.2c0,0.8-0.2,1.5-0.7,2c-0.6,0.6-1.3,0.9-2.2,0.9c-0.9,0-1.6-0.3-2.2-0.9c-0.6-0.6-0.9-1.3-0.9-2.2
			c0-0.9,0.3-1.6,0.9-2.2c0.6-0.6,1.3-0.9,2.2-0.9c0.4,0,0.8,0.1,1.2,0.3c0.4,0.2,0.7,0.4,0.9,0.7l-0.5,0.5
			c-0.4-0.5-0.9-0.7-1.6-0.7c-0.6,0-1.2,0.2-1.6,0.7c-0.5,0.4-0.7,1-0.7,1.7s0.2,1.3,0.7,1.7c0.5,0.4,1,0.7,1.6,0.7
			c0.7,0,1.2-0.2,1.7-0.7c0.3-0.3,0.5-0.7,0.5-1.2h-2.2V9.8h2.9C47.4,9.9,47.4,10.1,47.4,10.2z"/>
		<path class="st2" d="M52,7.7h-2.7v1.9h2.5v0.7h-2.5v1.9H52V13h-3.5V7H52V7.7z"/>
		<path class="st2" d="M55.3,13h-0.8V7.7h-1.7V7H57v0.7h-1.7V13z"/>
		<path class="st2" d="M59.9,13V7h0.8v6H59.9z"/>
		<path class="st2" d="M64.1,13h-0.8V7.7h-1.7V7h4.1v0.7h-1.7V13z"/>
		<path class="st2" d="M73.6,12.2c-0.6,0.6-1.3,0.9-2.2,0.9c-0.9,0-1.6-0.3-2.2-0.9c-0.6-0.6-0.9-1.3-0.9-2.2s0.3-1.6,0.9-2.2
			c0.6-0.6,1.3-0.9,2.2-0.9c0.9,0,1.6,0.3,2.2,0.9c0.6,0.6,0.9,1.3,0.9,2.2C74.5,10.9,74.2,11.6,73.6,12.2z M69.8,11.7
			c0.4,0.4,1,0.7,1.6,0.7c0.6,0,1.2-0.2,1.6-0.7c0.4-0.4,0.7-1,0.7-1.7S73.5,8.7,73,8.3c-0.4-0.4-1-0.7-1.6-0.7
			c-0.6,0-1.2,0.2-1.6,0.7c-0.4,0.4-0.7,1-0.7,1.7S69.3,11.3,69.8,11.7z"/>
		<path class="st2" d="M75.6,13V7h0.9l2.9,4.7h0l0-1.2V7h0.8v6h-0.8l-3.1-4.9h0l0,1.2V13H75.6z"/>
	</g>
	<path class="st3" d="M68.1,21.8c-2.4,0-4.3,1.8-4.3,4.3c0,2.4,1.9,4.3,4.3,4.3c2.4,0,4.3-1.8,4.3-4.3
		C72.4,23.5,70.5,21.8,68.1,21.8z M68.1,28.6c-1.3,0-2.4-1.1-2.4-2.6c0-1.5,1.1-2.6,2.4-2.6c1.3,0,2.4,1,2.4,2.6
		C70.5,27.5,69.4,28.6,68.1,28.6z M58.8,21.8c-2.4,0-4.3,1.8-4.3,4.3c0,2.4,1.9,4.3,4.3,4.3c2.4,0,4.3-1.8,4.3-4.3
		C63.1,23.5,61.2,21.8,58.8,21.8z M58.8,28.6c-1.3,0-2.4-1.1-2.4-2.6c0-1.5,1.1-2.6,2.4-2.6c1.3,0,2.4,1,2.4,2.6
		C61.2,27.5,60.1,28.6,58.8,28.6z M47.7,23.1v1.8h4.3c-0.1,1-0.5,1.8-1,2.3c-0.6,0.6-1.6,1.3-3.3,1.3c-2.7,0-4.7-2.1-4.7-4.8
		s2.1-4.8,4.7-4.8c1.4,0,2.5,0.6,3.3,1.3l1.3-1.3c-1.1-1-2.5-1.8-4.5-1.8c-3.6,0-6.7,3-6.7,6.6c0,3.6,3.1,6.6,6.7,6.6
		c2,0,3.4-0.6,4.6-1.9c1.2-1.2,1.6-2.9,1.6-4.2c0-0.4,0-0.8-0.1-1.1H47.7z M93.1,24.5c-0.4-1-1.4-2.7-3.6-2.7c-2.2,0-4,1.7-4,4.3
		c0,2.4,1.8,4.3,4.2,4.3c1.9,0,3.1-1.2,3.5-1.9l-1.4-1c-0.5,0.7-1.1,1.2-2.1,1.2c-1,0-1.6-0.4-2.1-1.3l5.7-2.4L93.1,24.5z
		 M87.3,25.9c0-1.6,1.3-2.5,2.2-2.5c0.7,0,1.4,0.4,1.6,0.9L87.3,25.9z M82.6,30h1.9V17.5h-1.9V30z M79.6,22.7L79.6,22.7
		c-0.5-0.5-1.3-1-2.3-1c-2.1,0-4.1,1.9-4.1,4.3c0,2.4,1.9,4.2,4.1,4.2c1,0,1.8-0.5,2.2-1h0.1v0.6c0,1.6-0.9,2.5-2.3,2.5
		c-1.1,0-1.9-0.8-2.1-1.5l-1.6,0.7c0.5,1.1,1.7,2.5,3.8,2.5c2.2,0,4-1.3,4-4.4V22h-1.8V22.7z M77.4,28.6c-1.3,0-2.4-1.1-2.4-2.6
		c0-1.5,1.1-2.6,2.4-2.6c1.3,0,2.3,1.1,2.3,2.6C79.7,27.5,78.7,28.6,77.4,28.6z M101.8,17.5h-4.5V30h1.9v-4.7h2.6
		c2.1,0,4.1-1.5,4.1-3.9S103.9,17.5,101.8,17.5z M101.9,23.5h-2.7v-4.3h2.7c1.4,0,2.2,1.2,2.2,2.1C104,22.4,103.2,23.5,101.9,23.5z
		 M113.4,21.7c-1.4,0-2.8,0.6-3.3,1.9l1.7,0.7c0.4-0.7,1-0.9,1.7-0.9c1,0,1.9,0.6,2,1.6v0.1c-0.3-0.2-1.1-0.5-1.9-0.5
		c-1.8,0-3.6,1-3.6,2.8c0,1.7,1.5,2.8,3.1,2.8c1.3,0,1.9-0.6,2.4-1.2h0.1v1h1.8v-4.8C117.2,23,115.5,21.7,113.4,21.7z M113.2,28.6
		c-0.6,0-1.5-0.3-1.5-1.1c0-1,1.1-1.3,2-1.3c0.8,0,1.2,0.2,1.7,0.4C115.2,27.8,114.2,28.6,113.2,28.6z M123.7,22l-2.1,5.4h-0.1
		l-2.2-5.4h-2l3.3,7.6l-1.9,4.2h1.9l5.1-11.8H123.7z M106.9,30h1.9V17.5h-1.9V30z"/>
	<g>
		
			<linearGradient id="SVGID_1_" gradientUnits="userSpaceOnUse" x1="21.7996" y1="173.2904" x2="5.0172" y2="156.508" gradientTransform="matrix(1 0 0 -1 0 182.0002)">
			<stop  offset="0" style="stop-color:#00A0FF"/>
			<stop  offset="6.574450e-03" style="stop-color:#00A1FF"/>
			<stop  offset="0.2601" style="stop-color:#00BEFF"/>
			<stop  offset="0.5122" style="stop-color:#00D2FF"/>
			<stop  offset="0.7604" style="stop-color:#00DFFF"/>
			<stop  offset="1" style="stop-color:#00E3FF"/>
		</linearGradient>
		<path class="st4" d="M10.4,7.5C10.1,7.8,10,8.3,10,8.9v22.1c0,0.6,0.2,1.1,0.5,1.4l0.1,0.1l12.4-12.4V20v-0.1L10.4,7.5L10.4,7.5z"
			/>
		
			<linearGradient id="SVGID_2_" gradientUnits="userSpaceOnUse" x1="33.8343" y1="161.9987" x2="9.6374" y2="161.9987" gradientTransform="matrix(1 0 0 -1 0 182.0002)">
			<stop  offset="0" style="stop-color:#FFE000"/>
			<stop  offset="0.4087" style="stop-color:#FFBD00"/>
			<stop  offset="0.7754" style="stop-color:#FFA500"/>
			<stop  offset="1" style="stop-color:#FF9C00"/>
		</linearGradient>
		<path class="st5" d="M27,24.3l-4.1-4.1V20v-0.1l4.1-4.1l0.1,0.1l4.9,2.8c1.4,0.8,1.4,2.1,0,2.9L27,24.3L27,24.3z"/>
		
			<linearGradient id="SVGID_3_" gradientUnits="userSpaceOnUse" x1="24.8269" y1="159.704" x2="2.0686" y2="136.9457" gradientTransform="matrix(1 0 0 -1 0 182.0002)">
			<stop  offset="0" style="stop-color:#FF3A44"/>
			<stop  offset="1" style="stop-color:#C31162"/>
		</linearGradient>
		<path class="st6" d="M27.1,24.2L22.9,20L10.4,32.5c0.5,0.5,1.2,0.5,2.1,0.1L27.1,24.2"/>
		
			<linearGradient id="SVGID_4_" gradientUnits="userSpaceOnUse" x1="7.2972" y1="181.8239" x2="17.4598" y2="171.6614" gradientTransform="matrix(1 0 0 -1 0 182.0002)">
			<stop  offset="0" style="stop-color:#32A071"/>
			<stop  offset="6.850000e-02" style="stop-color:#2DA771"/>
			<stop  offset="0.4762" style="stop-color:#15CF74"/>
			<stop  offset="0.8009" style="stop-color:#06E775"/>
			<stop  offset="1" style="stop-color:#00F076"/>
		</linearGradient>
		<path class="st7" d="M27.1,15.8L12.5,7.5c-0.9-0.5-1.6-0.4-2.1,0.1L22.9,20L27.1,15.8z"/>
		<g>
			<path class="st8" d="M27,24.1l-14.5,8.2c-0.8,0.5-1.5,0.4-2,0l0,0l-0.1,0.1l0,0l0.1,0.1l0,0c0.5,0.4,1.2,0.5,2,0L27,24.1L27,24.1
				z"/>
			<path class="st9" d="M10.4,32.3C10.1,32,10,31.5,10,30.9v0.1c0,0.6,0.2,1.1,0.5,1.4V32.3L10.4,32.3z"/>
		</g>
		<path class="st9" d="M32,21.3l-5,2.8l0.1,0.1l4.9-2.8c0.7-0.4,1-0.9,1-1.4l0,0C33,20.5,32.6,20.9,32,21.3z"/>
		<path class="st10" d="M12.5,7.6L32,18.7c0.6,0.4,1,0.8,1,1.3l0,0c0-0.5-0.3-1-1-1.4L12.5,7.5C11.1,6.7,10,7.3,10,8.9v0.1
			C10,7.5,11.1,6.8,12.5,7.6z"/>
	</g>
</g>
</svg>
